images/dai.svg

<svg height="250" viewBox="0 0 250 250" width="250" xmlns="http://www.w3.org/2000/svg" xmlns:xlink="http://www.w3.org/1999/xlink"><linearGradient id="a" gradientTransform="matrix(.416667 0 0 -.416667 0 250)" gradientUnits="userSpaceOnUse" x1="300" x2="300" y1="685" y2="-63"><stop offset="0" stop-color="#f9a606"/><stop offset="1" stop-color="#fbcc5f"/></linearGradient><path d="m250 125c0 69.035156-55.964844 125-125 125s-125-55.964844-125-125 55.964844-125 125-125 125 55.964844 125 125zm0 0" fill="url(#a)"/><path d="m199.125 104.375h-14.832031c-8.167969-22.667969-30.125-38.207031-59.085938-38.207031h-47.625v38.207031h-16.539062v13.707031h16.539062v14.375h-16.539062v13.710938h16.539062v37.75h47.625c28.625 0 50.417969-15.417969 58.792969-37.75h15.125v-13.710938h-11.792969c.292969-2.414062.460938-4.914062.460938-7.414062v-.335938c0-2.25-.125-4.457031-.335938-6.625h11.710938v-13.707031zm-108.207031-26h34.289062c21.25 0 37.042969 10.457031 44.335938 25.957031h-78.625zm34.289062 93.207031h-34.289062v-25.457031h78.539062c-7.332031 15.25-23.082031 25.457031-44.25 25.457031zm48.792969-46.25c0 2.417969-.167969 4.792969-.5 7.085938h-82.582031v-14.375h82.625c.289062 2.25.457031 4.582031.457031 6.957031zm0 0" fill="#fff"/></svg>

<svg xmlns="http://www.w3.org/2000/svg" xmlns:xlink="http://www.w3.org/1999/xlink" width="250px" height="250px" viewBox="0 0 250 250" version="1.1">
<defs>
<linearGradient id="linear0" gradientUnits="userSpaceOnUse" x1="300" y1="685" x2="300" y2="-63" gradientTransform="matrix(0.416667,0,0,-0.416667,0,250)">
<stop offset="0" style="stop-color:rgb(97.647059%,65.098041%,2.352941%);stop-opacity:1;"/>
<stop offset="1" style="stop-color:rgb(98.431373%,80.000001%,37.254903%);stop-opacity:1;"/>
</linearGradient>
</defs>
<g id="surface1">
<path style=" stroke:none;fill-rule:nonzero;fill:url(#linear0);" d="M 250 125 C 250 194.035156 194.035156 250 125 250 C 55.964844 250 0 194.035156 0 125 C 0 55.964844 55.964844 0 125 0 C 194.035156 0 250 55.964844 250 125 Z M 250 125 "/>
<path style=" stroke:none;fill-rule:nonzero;fill:rgb(100%,100%,100%);fill-opacity:1;" d="M 199.125 104.375 L 184.292969 104.375 C 176.125 81.707031 154.167969 66.167969 125.207031 66.167969 L 77.582031 66.167969 L 77.582031 104.375 L 61.042969 104.375 L 61.042969 118.082031 L 77.582031 118.082031 L 77.582031 132.457031 L 61.042969 132.457031 L 61.042969 146.167969 L 77.582031 146.167969 L 77.582031 183.917969 L 125.207031 183.917969 C 153.832031 183.917969 175.625 168.5 184 146.167969 L 199.125 146.167969 L 199.125 132.457031 L 187.332031 132.457031 C 187.625 130.042969 187.792969 127.542969 187.792969 125.042969 L 187.792969 124.707031 C 187.792969 122.457031 187.667969 120.25 187.457031 118.082031 L 199.167969 118.082031 L 199.167969 104.375 Z M 90.917969 78.375 L 125.207031 78.375 C 146.457031 78.375 162.25 88.832031 169.542969 104.332031 L 90.917969 104.332031 Z M 125.207031 171.582031 L 90.917969 171.582031 L 90.917969 146.125 L 169.457031 146.125 C 162.125 161.375 146.375 171.582031 125.207031 171.582031 Z M 174 125.332031 C 174 127.75 173.832031 130.125 173.5 132.417969 L 90.917969 132.417969 L 90.917969 118.042969 L 173.542969 118.042969 C 173.832031 120.292969 174 122.625 174 125 Z M 174 125.332031 "/>
</g>
</svg>
